actions/16/paint-swatch.svg

<svg xmlns="http://www.w3.org/2000/svg" viewBox="0 0 16 16">
 <g color="#000" transform="translate(-421.71-531.79)">
  <path opacity=".987" fill="#fdbc4b" d="m423.71 533.79h4v12h-4z"/>
  <path opacity=".987" fill="#f67400" d="m427.71 533.79h4v12h-4z"/>
  <path opacity=".987" fill="#ed1515" d="m431.72 533.79l-.006.007v11.993h4v-8l-1-1z"/>
 </g>
</svg>

<svg xmlns="http://www.w3.org/2000/svg" version="1.1" viewBox="0 0 16 16">
 <g transform="translate(-421.71,-531.79)">
  <path style="opacity:0.987;fill:#fdbc4b" d="M 423.71,533.79 H 427.71 V 545.79 H 423.71 Z"/>
  <path style="opacity:0.987;fill:#f67400" d="M 427.71,533.79 H 431.71 V 545.79 H 427.71 Z"/>
  <path style="opacity:0.987;fill:#ed1515" d="M 431.72,533.79 431.71,533.8 V 545.79 H 435.71 V 537.79 L 434.71,536.79 Z"/>
 </g>
</svg>
